korla/apps/scalable/preferences-desktop-plasma.svg

<?xml version="1.0" encoding="UTF-8" standalone="no"?><!DOCTYPE svg PUBLIC "-//W3C//DTD SVG 1.1//EN" "http://www.w3.org/Graphics/SVG/1.1/DTD/svg11.dtd"><svg width="100%" height="100%" viewBox="0 0 48 48" version="1.1" xmlns="http://www.w3.org/2000/svg" xmlns:xlink="http://www.w3.org/1999/xlink" xml:space="preserve" xmlns:serif="http://www.serif.com/" style="fill-rule:evenodd;clip-rule:evenodd;stroke-linejoin:round;stroke-miterlimit:1.41421;"><g id="g24"><path id="rect20" d="M46,9.645c0,-0.962 -0.779,-1.741 -1.74,-1.741c-7.054,0 -33.465,0 -40.519,0c-0.961,0 -1.741,0.779 -1.741,1.741c0,5.734 0,23.986 0,29.72c0,0.961 0.78,1.741 1.741,1.741c7.054,0 33.465,0 40.519,0c0.961,0 1.74,-0.78 1.74,-1.741c0,-5.734 0,-23.986 0,-29.72Z" style="fill-opacity:0.666667;"/><path id="rect22" d="M46,9.087c0,-0.581 -0.23,-1.138 -0.641,-1.549c-0.411,-0.411 -0.969,-0.642 -1.55,-0.642c-7.503,0 -32.114,0 -39.618,0c-0.581,0 -1.138,0.231 -1.549,0.642c-0.411,0.411 -0.642,0.968 -0.642,1.549c0,6.026 0,22.794 0,28.819c0,0.582 0.231,1.139 0.642,1.55c0.411,0.411 0.968,0.642 1.549,0.642c7.504,0 32.115,0 39.618,0c0.581,0 1.139,-0.231 1.55,-0.642c0.411,-0.411 0.641,-0.968 0.641,-1.55c0,-6.025 0,-22.793 0,-28.819Z" style="fill:url(#_Linear1);"/></g><path id="path26" d="M19.05,15.027c-0.741,0.001 -1.35,0.608 -1.35,1.346c0,0.738 0.609,1.346 1.35,1.346l0.001,0c0.74,0 1.35,-0.607 1.35,-1.346c0,-0.738 -0.61,-1.346 -1.35,-1.346l-0.001,0Zm7.65,0l-2.56,2.552l3.939,3.925l-4.079,4.627l2.7,2.355l6.3,-7.178l-6.3,-6.281Zm-9.45,6.281c-1.234,0 -2.25,1.013 -2.25,2.243l0,0.001c0,1.23 1.016,2.243 2.25,2.243c1.234,0 2.25,-1.013 2.25,-2.243l0,-0.001c0,-1.23 -1.016,-2.243 -2.25,-2.243l0,0Zm4.05,6.281l-0.001,0c-1.481,0 -2.7,1.215 -2.7,2.692c0,1.477 1.219,2.692 2.7,2.692l0.001,0c1.481,0 2.7,-1.215 2.7,-2.692c0,-1.477 -1.219,-2.692 -2.7,-2.692l0,0Z" style="fill:url(#_Linear2);fill-rule:nonzero;"/><defs><linearGradient id="_Linear1" x1="0" y1="0" x2="1" y2="0" gradientUnits="userSpaceOnUse" gradientTransform="matrix(1.94657e-15,-31.7899,31.7899,1.94657e-15,23.9225,39.5)"><stop offset="0" style="stop-color:#197cf1;stop-opacity:1"/><stop offset="1" style="stop-color:#20bcfa;stop-opacity:1"/></linearGradient><linearGradient id="_Linear2" x1="0" y1="0" x2="1" y2="0" gradientUnits="userSpaceOnUse" gradientTransform="matrix(6.59264e-16,-10.7666,10.7666,6.59264e-16,441.33,1083.01)"><stop offset="0" style="stop-color:#fff;stop-opacity:0"/><stop offset="1" style="stop-color:#d5edff;stop-opacity:1"/></linearGradient></defs></svg>

<?xml version="1.0" encoding="UTF-8" standalone="no"?>
<!DOCTYPE svg PUBLIC "-//W3C//DTD SVG 1.1//EN" "http://www.w3.org/Graphics/SVG/1.1/DTD/svg11.dtd">
<svg width="100%" height="100%" viewBox="0 0 48 48" version="1.1" xmlns="http://www.w3.org/2000/svg" xmlns:xlink="http://www.w3.org/1999/xlink" xml:space="preserve" xmlns:serif="http://www.serif.com/" style="fill-rule:evenodd;clip-rule:evenodd;stroke-linejoin:round;stroke-miterlimit:1.41421;">
    <g id="g24" transform="matrix(1.2,0,0,1.2,4.17686,-1209.46)">
        <rect id="rect20" x="-1.814" y="1014.47" width="36.667" height="27.668" style="fill-opacity:0.666667;"/>
        <rect id="rect22" x="-1.814" y="1013.63" width="36.667" height="27.668" style="fill:url(#_Linear1);"/>
    </g>
    <path id="path26" d="M19.05,15.027C18.309,15.028 17.7,15.635 17.7,16.373C17.7,17.111 18.309,17.719 19.05,17.719C19.05,17.719 19.05,17.719 19.051,17.719C19.791,17.719 20.401,17.112 20.401,16.373L20.401,16.373C20.401,15.635 19.791,15.027 19.051,15.027C19.05,15.027 19.05,15.027 19.05,15.027ZM26.7,15.027L24.14,17.579L28.079,21.504L24,26.131L26.7,28.486L33,21.308L26.7,15.027ZM17.25,21.308C17.25,21.308 17.25,21.308 17.25,21.308C16.016,21.308 15,22.321 15,23.551L15,23.552C15,24.782 16.016,25.795 17.25,25.795L17.25,25.795C18.484,25.795 19.5,24.782 19.5,23.552L19.5,23.551C19.5,22.321 18.484,21.308 17.25,21.308C17.25,21.308 17.25,21.308 17.25,21.308ZM21.3,27.589C21.3,27.589 21.299,27.589 21.299,27.589C19.818,27.589 18.599,28.804 18.599,30.281L18.599,30.281C18.599,31.758 19.818,32.973 21.299,32.973L21.3,32.973C22.781,32.973 24,31.758 24,30.281L24,30.281C24,28.804 22.781,27.589 21.3,27.589C21.3,27.589 21.3,27.589 21.3,27.589Z" style="fill:url(#_Linear2);fill-rule:nonzero;"/>
    <defs>
        <linearGradient id="_Linear1" x1="0" y1="0" x2="1" y2="0" gradientUnits="userSpaceOnUse" gradientTransform="matrix(1.62214e-15,-26.4916,26.4916,1.62214e-15,16.4547,1040.8)"><stop offset="0" style="stop-color:rgb(25,124,241);stop-opacity:1"/><stop offset="1" style="stop-color:rgb(32,188,250);stop-opacity:1"/></linearGradient>
        <linearGradient id="_Linear2" x1="0" y1="0" x2="1" y2="0" gradientUnits="userSpaceOnUse" gradientTransform="matrix(6.59267e-16,-10.7666,10.7666,6.59267e-16,441.33,1083.01)"><stop offset="0" style="stop-color:white;stop-opacity:0"/><stop offset="1" style="stop-color:rgb(213,237,255);stop-opacity:1"/></linearGradient>
    </defs>
</svg>
